src/images/img/icons8-html.svg

<svg xmlns="http://www.w3.org/2000/svg" xmlns:xlink="http://www.w3.org/1999/xlink" viewBox="0,0,255.99538,255.99538" width="48px" height="48px"><g transform=""><g fill="none" fill-rule="nonzero" stroke="none" stroke-width="1" stroke-linecap="butt" stroke-linejoin="miter" stroke-miterlimit="10" stroke-dasharray="" stroke-dashoffset="0" font-family="none" font-weight="none" font-size="none" text-anchor="none" style="mix-blend-mode: normal"><g transform="translate(0,24.53333) scale(5.33333,5.33333)"><path d="M41,5h-34l3,34l14,4l14,-4l3,-34z" fill="#e65100"></path><path d="M24,8v31.9l11.2,-3.2l2.5,-28.7z" fill="#ff6d00"></path><path d="M24,25v-4h8.6l-0.7,11.5l-7.9,2.6v-4.2l4.1,-1.4l0.3,-4.5zM32.9,17l0.3,-4h-9.2v4z" fill="#ffffff"></path><path d="M24,30.9v4.2l-7.9,-2.6l-0.4,-5.5h4l0.2,2.5zM19.1,17h4.9v-4h-9.1l0.7,12h8.4v-4h-4.6z" fill="#eeeeee"></path></g></g><g fill="#ffffff" fill-rule="nonzero" stroke="none" stroke-width="1" stroke-linecap="butt" stroke-linejoin="miter" stroke-miterlimit="10" stroke-dasharray="" stroke-dashoffset="0" font-family="none" font-weight="none" font-size="none" text-anchor="none" style="mix-blend-mode: normal"><g><path d="M96.85333,29.42v0c-1.96,1.92667 -4.25,2.89 -6.87,2.89v0c-3.35333,0 -6.03667,-1.15 -8.05,-3.45c-2.01333,-2.3 -3.02,-5.40333 -3.02,-9.31v0c0,-2.48667 0.54333,-4.76667 1.63,-6.84c1.08,-2.07333 2.59333,-3.68667 4.54,-4.84c1.94667,-1.15333 4.13333,-1.73 6.56,-1.73v0c2.5,0 4.72333,0.62333 6.67,1.87c1.94667,1.25333 3.45667,3.05 4.53,5.39c1.08,2.34667 1.62667,5.03 1.64,8.05v0v2.78c0,6.32 -1.57,11.28667 -4.71,14.9c-3.14,3.61333 -7.59333,5.54 -13.36,5.78v0l-1.85,0.03v-6.28l1.67,-0.02c6.54667,-0.3 10.08667,-3.37333 10.62,-9.22zM91.83333,26.55v0c1.21333,0 2.25667,-0.31 3.13,-0.93c0.88,-0.62667 1.54667,-1.38333 2,-2.27v0v-3.1c0,-2.55333 -0.48667,-4.53333 -1.46,-5.94c-0.97333,-1.40667 -2.27667,-2.11 -3.91,-2.11v0c-1.50667,0 -2.74667,0.69 -3.72,2.07c-0.97333,1.38 -1.46,3.11333 -1.46,5.2v0c0,2.06667 0.47333,3.76333 1.42,5.09c0.94667,1.32667 2.28,1.99 4,1.99zM135.37333,21.92v6.98c0,5.24 -1.08667,9.25 -3.26,12.03c-2.16667,2.77333 -5.34333,4.16 -9.53,4.16v0c-4.13333,0 -7.29333,-1.36 -9.48,-4.08c-2.18667,-2.72667 -3.30667,-6.63333 -3.36,-11.72v0v-6.98c0,-5.3 1.1,-9.32 3.3,-12.06c2.19333,-2.74 5.35667,-4.11 9.49,-4.11c4.13333,0 7.29333,1.35667 9.48,4.07c2.18667,2.72 3.30667,6.62333 3.36,11.71zM127.84333,30.25v-9.01c0,-3.14 -0.43,-5.42667 -1.29,-6.86c-0.86,-1.43333 -2.2,-2.15 -4.02,-2.15v0c-1.77333,0 -3.08,0.68 -3.92,2.04c-0.84,1.36667 -1.28667,3.5 -1.34,6.4v0v9.22c0,3.08667 0.42,5.38 1.26,6.88c0.84667,1.50667 2.19667,2.26 4.05,2.26v0c1.84,0 3.17,-0.72333 3.99,-2.17c0.81333,-1.44 1.23667,-3.64333 1.27,-6.61zM140.34333,15.8v-1.85c0,-2.32667 0.75667,-4.21667 2.27,-5.67c1.50667,-1.44667 3.48667,-2.17 5.94,-2.17v0c2.48,0 4.47333,0.71667 5.98,2.15c1.51333,1.43333 2.27,3.37333 2.27,5.82v0v1.87c0,2.34667 -0.75667,4.23 -2.27,5.65c-1.50667,1.42667 -3.48333,2.14 -5.93,2.14v0c-2.46667,0 -4.46,-0.71667 -5.98,-2.15c-1.52,-1.43333 -2.28,-3.36333 -2.28,-5.79zM145.34333,14.05v1.9c0,1.04667 0.3,1.88667 0.9,2.52c0.6,0.63333 1.38667,0.95 2.36,0.95c0.97333,0 1.74333,-0.32333 2.31,-0.97c0.57333,-0.64 0.86,-1.49667 0.86,-2.57v0v-1.93c0,-1.04 -0.28667,-1.88333 -0.86,-2.53c-0.56667,-0.64 -1.35333,-0.96 -2.36,-0.96v0c-0.96,0 -1.73333,0.31667 -2.32,0.95c-0.59333,0.63333 -0.89,1.51333 -0.89,2.64zM158.47333,37.2v-1.92c0,-2.34667 0.76333,-4.23667 2.29,-5.67c1.52667,-1.43333 3.50667,-2.15 5.94,-2.15v0c2.46,0 4.45,0.71 5.97,2.13c1.52,1.41333 2.28,3.36 2.28,5.84v0v1.88c0,2.32667 -0.74667,4.20667 -2.24,5.64c-1.49333,1.42667 -3.48,2.14 -5.96,2.14v0c-2.5,0 -4.50667,-0.72 -6.02,-2.16c-1.50667,-1.44 -2.26,-3.35 -2.26,-5.73zM163.47333,35.35v1.96c0,0.95333 0.31,1.77 0.93,2.45c0.62667,0.67333 1.41,1.01 2.35,1.01v0c2.12,0 3.18,-1.17 3.18,-3.51v0v-1.98c0,-1.04667 -0.29667,-1.88667 -0.89,-2.52c-0.59333,-0.63333 -1.37333,-0.95 -2.34,-0.95c-0.97333,0 -1.75667,0.31667 -2.35,0.95c-0.58667,0.63333 -0.88,1.49667 -0.88,2.59zM168.60333,12.1l-18.52,29.63l-3.67,-1.97l18.52,-29.64z"></path></g></g></g></svg>

<svg xmlns="http://www.w3.org/2000/svg"  viewBox="0 0 48 48" width="48px" height="48px"><path fill="#E65100" d="M41,5H7l3,34l14,4l14-4L41,5L41,5z"/><path fill="#FF6D00" d="M24 8L24 39.9 35.2 36.7 37.7 8z"/><path fill="#FFF" d="M24,25v-4h8.6l-0.7,11.5L24,35.1v-4.2l4.1-1.4l0.3-4.5H24z M32.9,17l0.3-4H24v4H32.9z"/><path fill="#EEE" d="M24,30.9v4.2l-7.9-2.6L15.7,27h4l0.2,2.5L24,30.9z M19.1,17H24v-4h-9.1l0.7,12H24v-4h-4.6L19.1,17z"/></svg>
